;FLAVOR:Marlin
;TIME:19076
;Filament used: 14.9841m
;Layer height: 0.2
;MINX:18.75
;MINY:40.5
;MINZ:0.2
;MAXX:211.25
;MAXY:189.5
;MAXZ:2
;TARGET_MACHINE.NAME:Creality Ender-3 v2 Neo
;Generated with Cura_SteamEngine 5.8.1
M140 S60
M105
M190 S60
M104 S200
M105
M109 S200
M82 ;absolute extrusion mode
G92 E0 ;Reset Extruder
G28 ;Home
G1 Z2.0 F3000 ;Move Z Axis up
G1 X10.1 Y20 Z0.28 F5000.0 ;Move to start position
G1 X10.1 Y200.0 Z0.28 F1500.0 E15 ;Draw the first line
G1 X10.4 Y200.0 Z0.28 F5000.0 ;Move to side a little
G1 X10.4 Y20 Z0.28 F1500.0 E30 ;Draw the second line
G92 E0 ;Reset Extruder
G1 Z2.0 F3000 ;Move Z Axis up
G92 E0
G92 E0
G1 F1500 E-4
;LAYER_COUNT:10
;LAYER:0
M107
G0 F6000 X35.147 Y43.333 Z0.2
;TYPE:SKIRT
G1 F1500 E0
G1 F1200 X35.899 Y42.715 E0.03237
G1 X36.702 Y42.165 E0.06475
G1 X37.552 Y41.688 E0.09716
G1 X38.44 Y41.289 E0.12954
G1 X39.36 Y40.969 E0.16194
G1 X40.304 Y40.733 E0.19431
G1 X41.265 Y40.581 E0.22667
G1 X42.173 Y40.515 E0.25695
G1 X42.812 Y40.5 E0.2782
G1 X186.804 Y40.5 E5.0674
G1 X187.688 Y40.513 E5.0968
G1 X188.66 Y40.572 E5.12919
G1 X189.623 Y40.718 E5.16159
G1 X190.57 Y40.949 E5.19401
G1 X191.426 Y41.237 E5.22405
G1 X192.382 Y41.655 E5.25875
G1 X193.204 Y42.107 E5.28995
G1 X194.046 Y42.673 E5.32369
G1 X194.859 Y43.337 E5.35861
G1 X196.611 Y44.916 E5.43705
G1 X198.565 Y46.585 E5.52252
G1 X200.484 Y48.133 E5.60453
G1 X202.483 Y49.653 E5.68805
G1 X204.553 Y51.137 E5.77277
G1 X206.436 Y52.417 E5.84849
G1 X207.227 Y53.012 E5.88142
G1 X207.952 Y53.664 E5.91385
G1 X208.615 Y54.376 E5.9462
G1 X209.214 Y55.145 E5.97863
G1 X209.742 Y55.965 E6.01106
G1 X210.194 Y56.826 E6.04341
G1 X210.557 Y57.691 E6.07461
G1 X210.862 Y58.653 E6.10817
G1 X211.073 Y59.603 E6.14054
G1 X211.196 Y60.527 E6.17154
G1 X211.235 Y61.173 E6.19307
G1 X211.25 Y61.83 E6.21493
G1 X211.249 Y170.915 E9.84311
G1 X211.237 Y171.678 E9.86849
G1 X211.179 Y172.651 E9.90091
G1 X211.033 Y173.614 E9.9333
G1 X210.802 Y174.56 E9.96569
G1 X210.489 Y175.483 E9.99811
G1 X210.097 Y176.374 E10.03048
G1 X209.645 Y177.197 E10.06171
G1 X209.083 Y178.034 E10.09525
G1 X208.517 Y178.737 E10.12526
G1 X207.791 Y179.49 E10.16005
G1 X207.054 Y180.126 E10.19243
G1 X206.264 Y180.696 E10.22483
G1 X205.488 Y181.159 E10.25489
G1 X204.219 Y181.747 E10.30141
G1 X203.466 Y182.038 E10.32826
G1 X202.085 Y182.549 E10.37723
G1 X199.806 Y183.467 E10.45895
G1 X197.453 Y184.494 E10.54434
G1 X195.156 Y185.573 E10.62875
G1 X192.941 Y186.692 E10.71129
G1 X190.218 Y188.172 E10.81437
G1 X189.341 Y188.596 E10.84677
G1 X188.43 Y188.94 E10.87916
G1 X187.492 Y189.203 E10.91156
G1 X186.604 Y189.371 E10.94162
G1 X185.327 Y189.485 E10.98426
G1 X184.67 Y189.5 E11.00611
G1 X45.55 Y189.499 E15.63326
G1 X44.828 Y189.488 E15.65728
G1 X43.84 Y189.428 E15.6902
G1 X42.876 Y189.282 E15.72263
G1 X41.929 Y189.051 E15.75505
G1 X41.034 Y188.748 E15.78648
G1 X39.801 Y188.182 E15.8316
G1 X38.918 Y187.704 E15.865
G1 X38.125 Y187.261 E15.89521
G1 X35.894 Y186.096 E15.97892
G1 X33.62 Y184.989 E16.06304
G1 X31.347 Y183.961 E16.14601
G1 X28.988 Y182.973 E16.23108
G1 X26.508 Y182.017 E16.31948
G1 X25.927 Y181.803 E16.34007
G1 X25.029 Y181.423 E16.37251
G1 X24.17 Y180.965 E16.40488
G1 X23.354 Y180.434 E16.43726
G1 X22.615 Y179.855 E16.46849
G1 X21.879 Y179.166 E16.50202
G1 X21.253 Y178.466 E16.53325
G1 X20.67 Y177.685 E16.56567
G1 X20.14 Y176.826 E16.59924
G1 X19.707 Y175.955 E16.63159
G1 X19.35 Y175.049 E16.66398
G1 X19.094 Y174.184 E16.69399
G1 X18.887 Y173.144 E16.72925
G1 X18.765 Y171.827 E16.77325
G1 X18.75 Y171.17 E16.7951
G1 X18.751 Y62.05 E20.42445
G1 X18.763 Y61.313 E20.44897
G1 X18.822 Y60.341 E20.48135
G1 X18.968 Y59.378 E20.51375
G1 X19.199 Y58.431 E20.54617
G1 X19.512 Y57.51 E20.57852
G1 X19.906 Y56.618 E20.61096
G1 X20.377 Y55.765 E20.64336
G1 X20.921 Y54.959 E20.67571
G1 X21.535 Y54.202 E20.70813
G1 X22.213 Y53.504 E20.74049
G1 X22.945 Y52.872 E20.77266
G1 X23.593 Y52.397 E20.79938
G1 X24.472 Y51.801 E20.8347
G1 X26.571 Y50.335 E20.91986
G1 X28.611 Y48.825 E21.00427
G1 X30.594 Y47.267 E21.08815
G1 X32.525 Y45.66 E21.17171
G1 X34.402 Y44.006 E21.25491
G1 X35.147 Y43.333 E21.28831
G0 F6000 X35.401 Y43.642
G1 F1200 X36.125 Y43.045 E21.31952
G1 X36.898 Y42.514 E21.35071
G1 X37.717 Y42.053 E21.38197
G1 X38.572 Y41.667 E21.41317
G1 X39.458 Y41.357 E21.44439
G1 X40.367 Y41.128 E21.47557
G1 X41.294 Y40.98 E21.50679
G1 X42.182 Y40.915 E21.5364
G1 X42.821 Y40.9 E21.55766
G1 X186.798 Y40.9 E26.34636
G1 X187.664 Y40.912 E26.37516
G1 X188.601 Y40.968 E26.40638
G1 X189.529 Y41.107 E26.43759
G1 X190.442 Y41.328 E26.46884
G1 X191.298 Y41.616 E26.49888
G1 X192.189 Y42.006 E26.53123
G1 X193.011 Y42.458 E26.56243
G1 X193.793 Y42.983 E26.59375
G1 X194.591 Y43.634 E26.62801
G1 X196.351 Y45.22 E26.70681
G1 X198.305 Y46.889 E26.79228
G1 X200.242 Y48.451 E26.87504
G1 X202.25 Y49.978 E26.95894
G1 X204.328 Y51.468 E27.04399
G1 X206.196 Y52.737 E27.1191
G1 X206.96 Y53.31 E27.15086
G1 X207.66 Y53.937 E27.18212
G1 X208.3 Y54.622 E27.2133
G1 X208.878 Y55.362 E27.24453
G1 X209.388 Y56.151 E27.27578
G1 X209.825 Y56.981 E27.30697
G1 X210.188 Y57.846 E27.33818
G1 X210.472 Y58.74 E27.36937
G1 X210.676 Y59.656 E27.40059
G1 X210.799 Y60.58 E27.43159
G1 X210.835 Y61.182 E27.45165
G1 X210.85 Y61.83 E27.47321
G1 X210.849 Y170.909 E31.10119
G1 X210.838 Y171.655 E31.126
G1 X210.783 Y172.592 E31.15722
G1 X210.644 Y173.52 E31.18843
G1 X210.423 Y174.432 E31.21964
G1 X210.123 Y175.322 E31.25088
G1 X209.746 Y176.181 E31.28208
G1 X209.294 Y177.004 E31.31331
G1 X208.771 Y177.783 E31.34452
G1 X208.205 Y178.486 E31.37454
G1 X207.529 Y179.188 E31.40695
G1 X206.82 Y179.802 E31.43815
G1 X206.059 Y180.352 E31.46938
G1 X205.283 Y180.815 E31.49943
G1 X204.075 Y181.374 E31.5437
G1 X203.327 Y181.663 E31.57037
G1 X201.946 Y182.174 E31.61935
G1 X199.646 Y183.1 E31.70181
G1 X197.293 Y184.127 E31.78721
G1 X194.986 Y185.211 E31.87199
G1 X192.761 Y186.335 E31.9549
G1 X190.043 Y187.812 E32.05778
G1 X189.199 Y188.222 E32.08899
G1 X188.321 Y188.555 E32.12022
G1 X187.418 Y188.81 E32.15143
G1 X186.53 Y188.978 E32.18149
G1 X185.318 Y189.085 E32.22196
G1 X184.67 Y189.1 E32.24352
G1 X45.556 Y189.099 E36.87047
G1 X44.852 Y189.089 E36.89388
G1 X43.899 Y189.032 E36.92564
G1 X42.97 Y188.893 E36.95688
G1 X42.057 Y188.672 E36.98812
G1 X41.201 Y188.384 E37.01816
G1 X39.968 Y187.818 E37.06329
G1 X39.113 Y187.355 E37.09563
G1 X38.31 Y186.906 E37.12623
G1 X36.079 Y185.741 E37.20994
G1 X33.795 Y184.629 E37.29443
G1 X31.502 Y183.592 E37.37813
G1 X29.143 Y182.604 E37.46319
G1 X26.652 Y181.644 E37.55199
G1 X26.082 Y181.434 E37.57219
G1 X25.217 Y181.07 E37.6034
G1 X24.388 Y180.63 E37.63462
G1 X23.601 Y180.119 E37.66583
G1 X22.862 Y179.54 E37.69705
G1 X22.177 Y178.899 E37.72826
G1 X21.574 Y178.227 E37.75829
G1 X20.991 Y177.446 E37.7907
G1 X20.498 Y176.647 E37.82193
G1 X20.079 Y175.808 E37.85312
G1 X19.734 Y174.935 E37.88434
G1 X19.478 Y174.07 E37.91434
G1 X19.285 Y173.107 E37.94701
G1 X19.165 Y171.818 E37.99007
G1 X19.15 Y171.17 E38.01163
G1 X19.151 Y62.056 E41.64077
G1 X19.162 Y61.337 E41.66469
G1 X19.218 Y60.4 E41.69591
G1 X19.357 Y59.472 E41.72712
G1 X19.578 Y58.559 E41.75836
G1 X19.878 Y57.671 E41.78954
G1 X20.256 Y56.811 E41.82078
G1 X20.709 Y55.988 E41.85203
G1 X21.232 Y55.21 E41.88321
G1 X21.822 Y54.48 E41.91443
G1 X22.475 Y53.806 E41.94564
G1 X23.182 Y53.194 E41.97674
G1 X23.817 Y52.728 E42.00294
G1 X24.701 Y52.129 E42.03845
G1 X26.809 Y50.657 E42.12397
G1 X28.849 Y49.147 E42.20838
G1 X30.841 Y47.582 E42.29264
G1 X32.781 Y45.967 E42.3766
G1 X34.67 Y44.303 E42.46033
G1 X35.401 Y43.642 E42.4931
G0 F6000 X35.656 Y43.95
G1 F1200 X36.352 Y43.374 E42.52315
G1 X37.095 Y42.862 E42.55316
G1 X37.882 Y42.417 E42.58323
G1 X38.704 Y42.044 E42.61326
G1 X39.556 Y41.745 E42.64329
G1 X40.431 Y41.523 E42.67331
G1 X41.323 Y41.379 E42.70337
G1 X42.191 Y41.315 E42.73231
G1 X42.83 Y41.3 E42.75357
G1 X186.793 Y41.3 E47.5418
G1 X187.641 Y41.311 E47.57001
G1 X188.543 Y41.364 E47.60006
G1 X189.436 Y41.496 E47.63009
G1 X190.314 Y41.707 E47.66012
G1 X191.17 Y41.995 E47.69016
G1 X191.997 Y42.357 E47.72018
G1 X192.789 Y42.791 E47.75022
G1 X193.54 Y43.293 E47.78027
G1 X194.323 Y43.931 E47.81386
G1 X196.091 Y45.524 E47.89301
G1 X198.045 Y47.193 E47.97848
G1 X200 Y48.769 E48.062
G1 X202.017 Y50.303 E48.14629
G1 X204.103 Y51.799 E48.23167
G1 X205.971 Y53.068 E48.30678
G1 X206.694 Y53.608 E48.33679
G1 X207.368 Y54.21 E48.36685
G1 X207.985 Y54.869 E48.39687
G1 X208.542 Y55.58 E48.42691
G1 X209.034 Y56.338 E48.45697
G1 X209.456 Y57.136 E48.48699
G1 X209.807 Y57.968 E48.51703
G1 X210.082 Y58.828 E48.54706
G1 X210.28 Y59.709 E48.57709
G1 X210.4 Y60.604 E48.60713
G1 X210.435 Y61.191 E48.62669
G1 X210.45 Y61.83 E48.64794
G1 X210.449 Y170.904 E52.27576
G1 X210.439 Y171.632 E52.29998
G1 X210.387 Y172.534 E52.33003
G1 X210.255 Y173.427 E52.36005
G1 X210.044 Y174.305 E52.39008
G1 X209.757 Y175.162 E52.42014
G1 X209.395 Y175.989 E52.45017
G1 X208.962 Y176.781 E52.48019
G1 X208.459 Y177.532 E52.51025
G1 X207.893 Y178.235 E52.54027
G1 X207.267 Y178.886 E52.57031
G1 X206.585 Y179.478 E52.60035
G1 X205.854 Y180.008 E52.63038
G1 X205.078 Y180.471 E52.66044
G1 X203.931 Y181.001 E52.70246
G1 X203.188 Y181.288 E52.72895
G1 X201.807 Y181.799 E52.77793
G1 X199.486 Y182.733 E52.86114
G1 X197.133 Y183.76 E52.94653
G1 X194.816 Y184.849 E53.03168
G1 X192.581 Y185.978 E53.11497
G1 X189.868 Y187.452 E53.21766
G1 X189.056 Y187.848 E53.24771
G1 X188.212 Y188.17 E53.27775
G1 X187.344 Y188.417 E53.30777
G1 X186.456 Y188.585 E53.33783
G1 X185.309 Y188.685 E53.37612
G1 X184.67 Y188.7 E53.39738
G1 X45.562 Y188.699 E58.02413
G1 X44.858 Y188.689 E58.04755
G1 X43.957 Y188.636 E58.07757
G1 X43.063 Y188.504 E58.10762
G1 X42.185 Y188.293 E58.13766
G1 X41.329 Y188.005 E58.1677
G1 X40.158 Y187.466 E58.21057
G1 X39.308 Y187.006 E58.24272
G1 X38.495 Y186.551 E58.2737
G1 X36.264 Y185.386 E58.35742
G1 X33.97 Y184.269 E58.44228
G1 X31.657 Y183.223 E58.52671
G1 X29.298 Y182.235 E58.61177
G1 X26.796 Y181.271 E58.70095
G1 X26.237 Y181.065 E58.72077
G1 X25.404 Y180.716 E58.75081
G1 X24.605 Y180.294 E58.78086
G1 X23.847 Y179.804 E58.81088
G1 X23.135 Y179.248 E58.84093
G1 X22.475 Y178.632 E58.87096
G1 X21.872 Y177.96 E58.90099
G1 X21.331 Y177.236 E58.93105
G1 X20.856 Y176.468 E58.96108
G1 X20.451 Y175.661 E58.99111
G1 X20.118 Y174.821 E59.02117
G1 X19.862 Y173.956 E59.05117
G1 X19.683 Y173.07 E59.08123
G1 X19.565 Y171.809 E59.12336
G1 X19.55 Y171.17 E59.14462
G1 X19.551 Y62.062 E62.77356
G1 X19.561 Y61.36 E62.79691
G1 X19.614 Y60.458 E62.82697
G1 X19.746 Y59.565 E62.85699
G1 X19.957 Y58.687 E62.88702
G1 X20.245 Y57.831 E62.91706
G1 X20.607 Y57.003 E62.94712
G1 X21.041 Y56.211 E62.97716
G1 X21.544 Y55.461 E63.00719
G1 X22.11 Y54.758 E63.03721
G1 X22.737 Y54.108 E63.06725
G1 X23.419 Y53.516 E63.09729
G1 X24.041 Y53.059 E63.12296
G1 X24.93 Y52.457 E63.15867
G1 X27.047 Y50.979 E63.24454
G1 X29.087 Y49.469 E63.32896
G1 X31.088 Y47.897 E63.41359
G1 X33.037 Y46.274 E63.49795
G1 X34.938 Y44.6 E63.5822
G1 X35.656 Y43.95 E63.61441
G1 F1500 E59.61441
;MESH:Base Top Half.stl
G0 F6000 X43.3 Y50.835
G0 X115 Y177.9
;TYPE:WALL-INNER
G1 F1500 E63.61441
G1 F1200 X184.4 Y177.9 E65.92266
G1 X184.403 Y171.434 E66.13772
G1 X184.474 Y171.209 E66.14557
G1 X184.696 Y170.982 E66.15613
G1 X184.968 Y170.9 E66.16558
G1 X199.648 Y170.9 E66.65384
G1 X199.648 Y62.1 E70.27254
G1 X187.463 Y62.099 E70.67782
G1 X187.211 Y62.027 E70.68653
G1 X187.097 Y61.946 E70.69119
G1 X186.954 Y61.751 E70.69923
G1 X186.901 Y61.546 E70.70627
G1 X186.9 Y52.1 E71.02045
G1 X43.1 Y52.1 E75.80325
G1 X43.099 Y61.546 E76.11743
G1 X43.046 Y61.751 E76.12447
G1 X42.964 Y61.882 E76.12961
G1 X42.771 Y62.036 E76.13782
G1 X42.537 Y62.099 E76.14588
G1 X30.348 Y62.1 E76.55129
G1 X30.348 Y170.9 E80.16999
G1 X45.032 Y170.9 E80.65839
G1 X45.33 Y170.998 E80.66882
G1 X45.526 Y171.209 E80.6784
G1 X45.597 Y171.434 E80.68625
G1 X45.6 Y177.9 E80.90131
G1 X115 Y177.9 E83.20956
G0 F6000 X115 Y178.3
;TYPE:WALL-OUTER
G1 F1200 X184.8 Y178.3 E85.53112
G1 X184.801 Y171.478 E85.75802
G1 X184.866 Y171.35 E85.76279
G1 X184.961 Y171.303 E85.76632
G1 X200.048 Y171.3 E86.26811
G1 X200.048 Y61.7 E89.91342
G1 X187.465 Y61.698 E90.33194
G1 X187.337 Y61.618 E90.33696
G1 X187.3 Y61.516 E90.34057
G1 X187.3 Y51.7 E90.66705
G1 X42.7 Y51.7 E95.47646
G1 X42.7 Y61.516 E95.80294
G1 X42.663 Y61.618 E95.80655
G1 X42.544 Y61.696 E95.81128
G1 X29.948 Y61.7 E96.23023
G1 X29.948 Y171.3 E99.87554
G1 X45.039 Y171.303 E100.37747
G1 X45.118 Y171.337 E100.38033
G1 X45.199 Y171.443 E100.38477
G1 X45.2 Y178.3 E100.61283
G1 X115 Y178.3 E102.93439
G0 F6000 X115 Y177.54
;TYPE:SKIN
G1 F1200 X45.96 Y177.54 E105.23067
G1 X45.955 Y171.389 E105.43525
G1 X45.885 Y171.13 E105.44418
G1 X45.712 Y170.848 E105.45518
G1 X45.39 Y170.619 E105.46832
G1 X45.075 Y170.543 E105.4791
G1 X30.708 Y170.54 E105.95695
G1 X30.708 Y62.46 E109.5517
G1 X42.631 Y62.456 E109.94826
G1 X43.04 Y62.292 E109.96292
G1 X43.336 Y61.978 E109.97727
G1 X43.456 Y61.573 E109.99132
G1 X43.46 Y52.46 E110.29442
G1 X186.54 Y52.46 E115.05328
G1 X186.544 Y61.594 E115.35708
G1 X186.681 Y62.006 E115.37152
G1 X186.971 Y62.306 E115.3854
G1 X187.423 Y62.455 E115.40123
G1 X199.288 Y62.46 E115.79586
G1 X199.288 Y170.54 E119.39061
G1 X184.804 Y170.54 E119.87235
G1 X184.431 Y170.72 E119.88613
G1 X184.152 Y171.032 E119.90005
G1 X184.045 Y171.393 E119.91257
G1 X184.04 Y177.54 E120.11702
G1 X115 Y177.54 E122.4133
G1 F1500 E118.4133
G0 F6000 X115 Y177.8
G0 X45.772 Y177.728
G0 X45.428 Y171.072
G0 X30.52 Y170.728
G0 X30.448 Y170.067
G0 X30.908 Y170.067
G1 F1500 E122.4133
G1 F1200 X31.181 Y170.34 E122.42614
G0 F6000 X31.747 Y170.34
G1 F1200 X30.908 Y169.501 E122.46561
G0 F6000 X30.908 Y168.936
G1 F1200 X32.313 Y170.34 E122.53167
G0 F6000 X32.878 Y170.34
G1 F1200 X30.908 Y168.37 E122.62433
G0 F6000 X30.908 Y167.804
G1 F1200 X33.444 Y170.34 E122.74362
G0 F6000 X34.01 Y170.34
G1 F1200 X30.908 Y167.239 E122.8895
G0 F6000 X30.908 Y166.673
G1 F1200 X34.575 Y170.34 E123.06199
G0 F6000 X35.141 Y170.34
G1 F1200 X30.908 Y166.107 E123.2611
G0 F6000 X30.908 Y165.541
G1 F1200 X35.707 Y170.34 E123.48683
G0 F6000 X36.272 Y170.34
G1 F1200 X30.908 Y164.976 E123.73913
G0 F6000 X30.908 Y164.41
G1 F1200 X36.838 Y170.34 E124.01806
G0 F6000 X37.404 Y170.34
G1 F1200 X30.908 Y163.844 E124.32361
G0 F6000 X30.908 Y163.279
G1 F1200 X37.97 Y170.34 E124.65577
G0 F6000 X38.535 Y170.34
G1 F1200 X30.908 Y162.713 E125.01452
G0 F6000 X30.908 Y162.147
G1 F1200 X39.101 Y170.34 E125.39989
G0 F6000 X39.667 Y170.34
G1 F1200 X30.908 Y161.582 E125.81186
G0 F6000 X30.908 Y161.016
G1 F1200 X40.232 Y170.34 E126.25043
G0 F6000 X40.798 Y170.34
G1 F1200 X30.908 Y160.45 E126.71563
G0 F6000 X30.908 Y159.885
G1 F1200 X41.364 Y170.34 E127.20742
G0 F6000 X41.929 Y170.34
G1 F1200 X30.908 Y159.319 E127.72582
G0 F6000 X30.908 Y158.753
G1 F1200 X42.495 Y170.34 E128.27084
G0 F6000 X43.061 Y170.34
G1 F1200 X30.908 Y158.188 E128.84245
G0 F6000 X30.908 Y157.622
G1 F1200 X43.626 Y170.34 E129.44067
G0 F6000 X44.192 Y170.34
G1 F1200 X30.908 Y157.056 E130.06551
G0 F6000 X30.908 Y156.491
G1 F1200 X44.758 Y170.34 E130.71694
G0 F6000 X45.396 Y170.413
G1 F1200 X30.908 Y155.925 E131.39842
G0 F6000 X30.908 Y155.359
G1 F1200 X52.889 Y177.34 E132.43233
G0 F6000 X53.454 Y177.34
G1 F1200 X30.908 Y154.793 E133.49285
G0 F6000 X30.908 Y154.228
G1 F1200 X54.02 Y177.34 E134.57997
G0 F6000 X54.586 Y177.34
G1 F1200 X30.908 Y153.662 E135.69371
G0 F6000 X30.908 Y153.096
G1 F1200 X55.152 Y177.34 E136.83407
G0 F6000 X55.717 Y177.34
G1 F1200 X30.908 Y152.531 E138.00101
G0 F6000 X30.908 Y151.965
G1 F1200 X56.283 Y177.34 E139.19458
G0 F6000 X56.849 Y177.34
G1 F1200 X30.908 Y151.399 E140.41476
G0 F6000 X30.908 Y150.834
G1 F1200 X57.414 Y177.34 E141.66152
G0 F6000 X57.98 Y177.34
G1 F1200 X30.908 Y150.268 E142.93491
G0 F6000 X30.908 Y149.702
G1 F1200 X58.546 Y177.34 E144.23491
G0 F6000 X59.111 Y177.34
G1 F1200 X30.908 Y149.137 E145.5615
G0 F6000 X30.908 Y148.571
G1 F1200 X59.677 Y177.34 E146.9147
G0 F6000 X60.243 Y177.34
G1 F1200 X30.908 Y148.005 E148.29453
G0 F6000 X30.908 Y147.44
G1 F1200 X60.808 Y177.34 E149.70093
G0 F6000 X61.374 Y177.34
G1 F1200 X30.908 Y146.874 E151.13396
